icons/health_worker_fill.svg

<svg width="48" height="48" viewBox="0 0 48 48" fill="none" xmlns="http://www.w3.org/2000/svg">
<path fill-rule="evenodd" clip-rule="evenodd" d="M17 28.0126C17.5028 27.8982 19 30 19 30L23.5481 30.0001C24.1387 30.0002 24.5663 30.0002 25.6851 30H29C29 30 30.4972 27.8982 31 28.0126C36.4042 29.2434 42 32.7946 42 36.5699V42H6V36.5699C6 32.7946 11.5958 29.2434 17 28.0126ZM32 34V32H34V34H36V36H34V38H32V36H30V34H32Z" fill="black"/>
<path fill-rule="evenodd" clip-rule="evenodd" d="M24 24C28.4183 24 32 20.4183 32 16C32 11.5817 28.4183 8 24 8C19.5817 8 16 11.5817 16 16C16 20.4183 19.5817 24 24 24ZM24 26C29.5228 26 34 21.5228 34 16C34 10.4772 29.5228 6 24 6C18.4772 6 14 10.4772 14 16C14 21.5228 18.4772 26 24 26Z" fill="black"/>
</svg>

<svg
  xmlns="http://www.w3.org/2000/svg"
  width="24"
  height="24"
  viewBox="0 0 24 24"
  fill="none"
  stroke="currentColor"
  stroke-width="2"
  stroke-linecap="round"
  stroke-linejoin="round"
>
  <path
    fill-rule="evenodd"
    d="M17 28.013c.503-.115 2 1.987 2 1.987h10s1.497-2.102 2-1.987c5.404 1.23 11 4.782 11 8.557V42H6v-5.43c0-3.775 5.596-7.327 11-8.557M32 34v-2h2v2h2v2h-2v2h-2v-2h-2v-2z"
    clip-rule="evenodd"
  />
  <path
    fill-rule="evenodd"
    d="M24 24a8 8 0 1 0 0-16 8 8 0 0 0 0 16m0 2c5.523 0 10-4.477 10-10S29.523 6 24 6s-10 4.477-10 10 4.477 10 10 10"
    clip-rule="evenodd"
  />
</svg>
